!!!OTL: Caicha shange
!!!ARE: Asia, China,ÿAnhui Tongcheng
!! III, 543
!!!SCT: C2051
!!!YEM: Copyright 1995, estate of Helmut Schaffrath.
**kern
*ICvox
*Ivox
!! Mixed meters:  2/4; 3/4
*M3/4
*k[f#c#g#]
*A:
{8cc#
8b
8a
8cc#
=1
2b
=2
8cc#
8ee
8cc#
8b
=3
4a
4a
4r}
=4
*M2/4
{8b
8cc#
8b
8a
=5
8f#
8e
4f#
=6
4.a
8f#
=7
*M3/4
4e
4e
4r}
=8
*M2/4
{4e
8e
8f#
=9
*M3/4
4a
2b
=10
*M2/4
8a
8b
8a
8f#
=11
*M3/4
4a
4f#
4r}
=12
*M2/4
{8b
8cc#
8b
8a
=13
*M3/4
8f#
8e
2f#
=14
*M2/4
4.a
8f#
=15
4e
2e}
==
!!!AGN: Shange
!!!AMT: irregular
!!!AIN: vox
!!!EED: Helmut Schaffrath
!!!EEV: 1.0
*-
